hero/solid/code-bracket-square.svg

<svg width="24" height="24" viewBox="0 0 24 24" fill="none" xmlns="http://www.w3.org/2000/svg">
<path fill-rule="evenodd" clip-rule="evenodd" d="M3 6C3 4.34315 4.34315 3 6 3H18C19.6569 3 21 4.34315 21 6V18C21 19.6569 19.6569 21 18 21H6C4.34315 21 3 19.6569 3 18V6ZM17.25 12C17.25 12.1989 17.171 12.3897 17.0303 12.5303L14.7803 14.7803C14.4874 15.0732 14.0126 15.0732 13.7197 14.7803C13.4268 14.4874 13.4268 14.0126 13.7197 13.7197L15.4393 12L13.7197 10.2803C13.4268 9.98744 13.4268 9.51256 13.7197 9.21967C14.0126 8.92678 14.4874 8.92678 14.7803 9.21967L17.0303 11.4697C17.171 11.6103 17.25 11.8011 17.25 12ZM6.96967 11.4697C6.82902 11.6103 6.75 11.8011 6.75 12C6.75 12.1989 6.82902 12.3897 6.96967 12.5303L9.21967 14.7803C9.51256 15.0732 9.98744 15.0732 10.2803 14.7803C10.5732 14.4874 10.5732 14.0126 10.2803 13.7197L8.56066 12L10.2803 10.2803C10.5732 9.98744 10.5732 9.51256 10.2803 9.21967C9.98744 8.92678 9.51256 8.92678 9.21967 9.21967L6.96967 11.4697Z" fill="#0F172A"/>
</svg>

<svg viewBox="0 0 24 24" xmlns="http://www.w3.org/2000/svg"><path fill-rule="evenodd" d="M3 6v0c0-1.66 1.34-3 3-3h12v0c1.65 0 3 1.34 3 3v12 0c0 1.65-1.35 3-3 3H6v0c-1.66 0-3-1.35-3-3V6Zm14.25 6v0c-.01.19-.08.38-.22.53l-2.25 2.25v0c-.29.3-.76.31-1.06.03 -.31-.29-.32-.76-.04-1.06 .01-.02.02-.03.03-.04l1.72-1.72 -1.72-1.72 -.001-.001c-.31-.29-.32-.76-.04-1.06 .28-.31.75-.32 1.06-.04 .01.01.02.02.03.03l2.25 2.25c.14.14.22.33.22.53Zm-10.28-.53v0c-.3.29-.3.76 0 1.06l2.25 2.25H9.21c.28.3.75.31 1.06.03 .3-.29.31-.76.03-1.06 -.02-.02-.03-.03-.04-.04l-1.72-1.72 1.72-1.72v0c.3-.29.31-.76.03-1.06 -.29-.31-.76-.32-1.06-.04 -.02.01-.03.02-.04.03l-2.25 2.25Z"/></svg>
